X:1
T:Now The Dancing Sunbeams Play (The Mermaid's Song)
T:Now The Dancing Sunbeams Play (The Mermaid's Song) Accompaniment 
T:Joseph Haydn
C:Joseph Haydn
%%score { ( 1 2 ) | ( 3 4 ) }
L:1/8
Q:1/4=80
M:2/4
K:C
V:1 treble nm="Piano" snm="Pno."
V:2 treble 
V:3 bass 
V:4 bass 
V:1
 E2 F2 | G3 (3(c/e/c/) | (3(B/d/B/)(3(A/c/A/) (3(G/B/G/)(3(F/A/F/) | [EG]3 (3(g/e/c/) | %4
 (3(B/d/f/)(3(g/b/d'/) f' z | (3B/c/e/(3g/b/c'/ e' z/ c'/ | %6
 (3(b/d'/f'/)(3(e'/d'/c'/) (3b/a/g/(3f/e/d/ | (3e/g/f/(3e/d/c/ (3e/d/c/(3B/A/G/ | %8
 (3^F/A/G/(3F/c/B/ (3A/G/F/(3E/D/C/ | (3B,/D/G/(3C/E/G/ (3B,/D/G/(3A,/C/^F/ | %10
 (3B,/D/G/(3C/E/G/ (3B,/D/G/(3A,/C/^F/ | G z G z | [B,G]2 GE | AF dB | c2 [df][Gd] | %15
 [ce][Ec] [Ad][FB] | [Ec]2 (3g/a/g/(3e/f/e/ | (3a/b/a/(3f/g/f/ (3c'/b/d'/(3f'/d'/b/ | %18
 c'2 [df][Gd] | [ce][Ec] [FAd][DFB] | [Ec] z z2 |: [CE]2 [EG]/[DF]/[CE]/[DF]/ | [EG]3 [Ac] | %23
 [GB][FA] [EG][DF] | [DF]2 ([CE]/[EG]/[DF]/[CE]/) | [B,D]2 [DF]/[CE]/[B,D]/[CE]/ | [DF]3 [CE] | %27
 [FA][EG] [DF][CE] | [CE]2 [B,D]^D | [CE]2 [EG]/[DF]/[CE]/[DF]/ | [EG]3 [ce] | [Bd][Ac] [GB][FA] | %32
 [FA]2 [EG]A/B/ | c3 B | B/A/c/B/ d/c/^d/e/ | [DG]2 [D^F]2 | G2 A^F | BG c/B/c/A/ | dd A^F | %39
 BG c/d/c/A/ | (3G/B/d/(3G/B/d/ (3G/B/d/(3G/B/d/ | (3E/G/c/(3E/G/c/ (3G/_B/^c/(3G/B/c/ | %42
 (3G/=B/d/(3G/B/d/ (3G/A/e/(3G/A/e/ | (3D/G/B/(3d/B/G/ (3D/^F/A/(3c/A/F/ | %44
 (3D/G/B/(3D/G/B/ (3D/A/c/(3D/A/c/ | (3D/G/B/(3D/G/B/ (3D/A/c/(3D/A/c/ | %46
 (3D/G/B/(3D/G/B/ (3D/^F/A/(3D/F/A/ | (3D/G/B/(3D/G/B/ (3D/^F/A/(3D/F/A/ | %48
 [B,G](3g/b/g/ (3^f/a/f/(3e/g/e/ | (3d/^f/d/(3c/e/c/ (3B/d/B/(3A/c/A/ | G3 [FA] | [GB]3 [Ac] | %52
 [Bd]3 [ce] | [df]3 [ce] | [Bd][Ac] [GB][GB] | [Gc]G EC | GG EC | [B,DG]2 GE | AF dB | %59
 c2 [df][Gd] | [ce][Ec] [Ad][FB] | z (3z/ g/b/ (3c'/e'/c'/(3b/d'/b/ | %62
 (3a/c'/a/(3g/b/g/ (3f/a/f/(3e/g/e/ | (3d/f/d/(3c/e/c/ (3B/d/B/(3A/c/A/ | G2 ^F/G/A/F/ | %65
 Gd ^F/G/A/F/ | Gd ^F/G/A/F/ | Gd ^F/G/A/F/ | G2 GE | AF dB | c2 [df][Gd] | [ce][Ec] [Fd][FB] | %72
 [Ec]2 [gbd'f'](3d'/b/g/ | [gc'e'](3g/e/c/ [cfa][DFB] | !fermata![CEc]2 z2 :| %75
V:2
 CG, DG, | EG, E x | x4 | x4 | x4 | x4 | x4 | x4 | x4 | x4 | x4 | B, z B, z | x4 | x4 | x4 | x4 | %16
 x4 | x4 | x4 | x4 | x4 |: x4 | x4 | x4 | x4 | x4 | x4 | x4 | x4 | x4 | x4 | x4 | x4 | E_E D2 | %34
 E2 z2 | x4 | x4 | x4 | x4 | x4 | x4 | x4 | x4 | x4 | x4 | x4 | x4 | x4 | x4 | x4 | x4 | x4 | x4 | %53
 x4 | x4 | x4 | x4 | x4 | x4 | x4 | x4 | x4 | x4 | x4 | x4 | x4 | x4 | x4 | x4 | x4 | x4 | x4 | %72
 x4 | x4 | x4 :| %75
V:3
 (C,,C, C,,C,) | (C,,C, C,,C,) | (C,,C, C,,C,) | (C,,C, C,,)C | ([DF]G, [DF]G,) | ([CE]G, [CE]G,) | %6
 ([DF]G, [DF]G,) | ([CE]G, [CE]G,) | [A,C]3 [D,A,] | (G,,G, G,,G,) | (G,,G, G,,G,) | %11
 (3G,,/B,,/D,/(3G,/B,,/D,/ (3G,,/B,,/D,/(3G,/B,,/D,/ | G,,2 E,C | F,D G,F | [A,E]2 [DF][G,D] | %15
 [CE][E,C] [F,A,D][G,B,] | [C,G,B,]2 z C- | C D2 F | [A,E]2 z/ [DF]/ z/ [G,D]/ | %19
 z/ [CE]/ z/ [E,C]/ z/ [F,D]/ z/ [G,B,]/ | [C,G,C]C, G,,E,, |: (C,,C, C,,C,) | (C,,C, C,,C,) | %23
 (C,,C, C,,C,) | (C,,C, C,,) z | G,,G, G,,G, | G,,G, G,,G, | G,,G, G,,G, | G,,G, G,, z | %29
 C,,C, C,,C, | C,,C, C,,C, | C,,C, C,,C, | C,,C, CB, | A,G, ^F,G, | C,2 z2 | B,2 C2 | B,D z D- | %37
 D D2 D- | D D2 D- | D D2 D | [G,B,]2 [=F,B,]2 | [E,C]2 [_E,_B,]2 | [D,=B,]2 [^C,A,]2 | %43
 [D,B,]2 [D,C]2 | [G,B,]D, [^F,C]D, | [G,B,]D, [^F,C]D, | [G,B,]D, [A,C]D, | B,G, D,D, | %48
 [G,,G,] z z2 | z4 | z G,, G,2 | z G,, [G,B,]2- | [G,B,][A,C] [B,D]2- | [B,D][CE] [DF]2- | %54
 [DF]2 [DF][DF] | [CE]G, E,C, | G,G, E,C, | G,2 z C- | C D2 F | [A,E]2 [DF][G,D] | %60
 [CE][E,C] [F,D][G,D] | (3C,/E,/G,/C [EG][DF] | [CE][B,D] [A,C][G,B,] | [F,A,][E,G,] [D,F,][C,E,] | %64
 [G,B,]D, [A,C]D | [G,B,]D, [A,C]D, | [G,B,]D, [A,C]D, | [G,B,]D, [A,C]D, | B,3 C- | C D2 F | %70
 [A,E]2 z/ [DF]/ z/ [G,D]/ | z/ [CE]/ z/ [E,C]/ z/ [F,D]/ z/ [G,D]/ | [C,C]2 [G,B,D] z | %73
 [C,E,G,C] z [F,,F,][G,,G,] | !fermata![C,,C,]2 z2 :| %75
V:4
 x4 | x4 | x4 | x4 | x4 | x4 | x4 | x4 | x4 | x4 | x4 | x4 | x4 | x4 | x4 | x4 | x2 E,2 | F,2 G,2 | %18
 x4 | x4 | x4 |: x4 | x4 | x4 | x4 | x4 | x4 | x4 | x4 | x4 | x4 | x4 | x4 | x4 | x4 | D,4 | %36
 G,D ^F,2 | G,2 A,2 | B,2 ^F,2 | G,2 A,2 | x4 | x4 | x4 | x4 | x4 | x4 | x4 | x4 | x4 | x4 | x4 | %51
 x4 | x4 | x4 | x4 | x4 | x4 | G,2 E,2 | F,2 G,2 | x4 | x4 | x4 | x4 | x4 | x4 | x4 | x4 | x4 | %68
 G,2 E,2 | F,2 G,2 | x4 | x4 | x4 | x4 | x4 :| %75

